_src_/blocks/defense/shock-mine.svg

<?xml version="1.0" encoding="UTF-8" standalone="no"?>
<svg
   xmlns:dc="http://purl.org/dc/elements/1.1/"
   xmlns:cc="http://creativecommons.org/ns#"
   xmlns:rdf="http://www.w3.org/1999/02/22-rdf-syntax-ns#"
   xmlns:svg="http://www.w3.org/2000/svg"
   xmlns="http://www.w3.org/2000/svg"
   xmlns:xlink="http://www.w3.org/1999/xlink"
   xmlns:sodipodi="http://sodipodi.sourceforge.net/DTD/sodipodi-0.dtd"
   xmlns:inkscape="http://www.inkscape.org/namespaces/inkscape"
   width="32"
   height="32"
   viewBox="0 0 8.4666667 8.4666667"
   version="1.1"
   id="svg5"
   sodipodi:docname="shock-mine.svg"
   inkscape:version="1.0 (4035a4fb49, 2020-05-01)">
  <metadata
     id="metadata78">
    <rdf:RDF>
      <cc:Work
         rdf:about="">
        <dc:format>image/svg+xml</dc:format>
        <dc:type
           rdf:resource="http://purl.org/dc/dcmitype/StillImage" />
      </cc:Work>
    </rdf:RDF>
  </metadata>
  <sodipodi:namedview
     id="namedview7"
     pagecolor="#949494"
     bordercolor="#666666"
     borderopacity="1.0"
     inkscape:pageshadow="2"
     inkscape:pageopacity="0"
     inkscape:pagecheckerboard="0"
     inkscape:document-units="px"
     showgrid="true"
     inkscape:zoom="22.627417"
     inkscape:cx="13.23168"
     inkscape:cy="14.568336"
     inkscape:window-width="1920"
     inkscape:window-height="1017"
     inkscape:window-x="1912"
     inkscape:window-y="-8"
     inkscape:window-maximized="1"
     inkscape:current-layer="layer3"
     units="px"
     inkscape:snap-global="true"
     inkscape:document-rotation="0">
    <inkscape:grid
       type="xygrid"
       id="grid1856"
       spacingx="0.13229167"
       spacingy="0.13229167"
       empspacing="4" />
  </sodipodi:namedview>
  <defs
     id="defs2" />
  <g
     inkscape:groupmode="layer"
     id="layer3"
     inkscape:label="vector"
     style="display:inline">
    <path
       sodipodi:nodetypes="ccccccccccccccccccccccccccccccccccccccccccccc"
       transform="scale(0.26458333)"
       d="M 8.5,4 4,8.5 v 15 L 8.5,28 h 15 L 28,23.5 V 8.5 L 23.5,4 Z M 9.5000004,8.0000003 10.5,8 12,9.5 v 1 L 10.5,12 h -1 L 8,10.5 v -1 z M 21.5,8 h 1 L 24,9.5 v 1 L 22.5,12 h -1 L 20,10.5 v -1 z m -12,12 h 1 l 1.5,1.5 v 1 L 10.5,24 h -1 L 8,22.5 v -1 z m 12,0 h 1 l 1.5,1.5 v 1 L 22.5,24 h -1 L 20,22.5 v -1 z"
       style="fill:#4a4b53;fill-opacity:1;stroke:none;stroke-width:0.999999px;stroke-linecap:butt;stroke-linejoin:miter;stroke-opacity:1"
       id="path961" />
    <path
       id="path9598"
       d="m 3.175,1.0583333 v 0.396875 l 0.6614583,0.6614584 h 0.79375 L 5.2916666,1.4552083 v -0.396875"
       style="fill:#6e7080;stroke:none;stroke-width:0.264583px;stroke-linecap:butt;stroke-linejoin:miter;stroke-opacity:1;fill-opacity:1" />
    <path
       id="path9598-56"
       d="M 3.175,7.4083335 V 7.0114585 L 3.8364583,6.3500001 h 0.79375 l 0.6614583,0.6614584 v 0.396875"
       style="display:inline;fill:#6e7080;fill-opacity:1;stroke:none;stroke-width:0.264583px;stroke-linecap:butt;stroke-linejoin:miter;stroke-opacity:1" />
    <path
       id="path9598-5"
       d="M 7.4083334,3.1750001 H 7.0114584 L 6.35,3.8364584 v 0.79375 l 0.6614584,0.6614583 h 0.396875"
       style="display:inline;fill:#6e7080;fill-opacity:1;stroke:none;stroke-width:0.264583px;stroke-linecap:butt;stroke-linejoin:miter;stroke-opacity:1" />
    <path
       id="path9598-5-3"
       d="m 1.0583334,3.1750002 h 0.3968749 l 0.6614584,0.6614583 v 0.79375 L 1.4552083,5.2916668 H 1.0583334"
       style="display:inline;fill:#6e7080;fill-opacity:1;stroke:none;stroke-width:0.264583px;stroke-linecap:butt;stroke-linejoin:miter;stroke-opacity:1" />
  </g>
  <g
     sodipodi:insensitive="true"
     inkscape:groupmode="layer"
     id="layer1"
     inkscape:label="image"
     style="display:none;opacity:0.5">
    <image
       y="-2.3764649e-07"
       x="-2.3764649e-07"
       id="image924"
       xlink:href="data:image/png;base64,iVBORw0KGgoAAAANSUhEUgAAACAAAAAgCAYAAABzenr0AAAArElEQVR42u2XsQ2AMAwEMx+U7IEY gTEQNXsCKZBC5DhviBxQXHwD9vsQRnncOM2OU9cPr5TzdwbwaYBl3bzJHuq8ziqu9x5iAN9EDX8C cEGkQOAnRyC4HhggNzwFgfRQENTiUM3cPWn9bR4CgABK6v8HoPsKJEslUeCLAZSEiDxxgBIQhJ8B /Aig6hJW+wztLGjvLEgEUb1AwqThOpEsB6ESSjkIlVhuf0ZNARwgxihbJHcGjAAAAABJRU5ErkJg gg== "
       style="image-rendering:optimizeSpeed"
       preserveAspectRatio="none"
       height="8.4666672"
       width="8.4666672" />
  </g>
</svg>

<?xml version="1.0" encoding="UTF-8" standalone="no"?>
<svg
   inkscape:version="1.1.2 (0a00cf5339, 2022-02-04, custom)"
   sodipodi:docname="shock-mine.svg"
   id="svg5"
   version="1.1"
   viewBox="0 0 8.4666667 8.4666667"
   height="32"
   width="32"
   xmlns:inkscape="http://www.inkscape.org/namespaces/inkscape"
   xmlns:sodipodi="http://sodipodi.sourceforge.net/DTD/sodipodi-0.dtd"
   xmlns:xlink="http://www.w3.org/1999/xlink"
   xmlns="http://www.w3.org/2000/svg"
   xmlns:svg="http://www.w3.org/2000/svg"
   xmlns:rdf="http://www.w3.org/1999/02/22-rdf-syntax-ns#"
   xmlns:cc="http://creativecommons.org/ns#"
   xmlns:dc="http://purl.org/dc/elements/1.1/">
  <metadata
     id="metadata78">
    <rdf:RDF>
      <cc:Work
         rdf:about="">
        <dc:format>image/svg+xml</dc:format>
        <dc:type
           rdf:resource="http://purl.org/dc/dcmitype/StillImage" />
      </cc:Work>
    </rdf:RDF>
  </metadata>
  <sodipodi:namedview
     inkscape:document-rotation="0"
     inkscape:snap-global="true"
     units="px"
     inkscape:current-layer="layer3"
     inkscape:window-maximized="1"
     inkscape:window-y="0"
     inkscape:window-x="0"
     inkscape:window-height="1040"
     inkscape:window-width="1920"
     inkscape:cy="19.125"
     inkscape:cx="11.84375"
     inkscape:zoom="16"
     showgrid="true"
     inkscape:document-units="px"
     inkscape:pagecheckerboard="0"
     inkscape:pageopacity="0"
     inkscape:pageshadow="2"
     borderopacity="1.0"
     bordercolor="#666666"
     pagecolor="#949494"
     id="namedview7">
    <inkscape:grid
       empspacing="4"
       spacingy="0.13229167"
       spacingx="0.13229167"
       id="grid1856"
       type="xygrid" />
  </sodipodi:namedview>
  <defs
     id="defs2" />
  <g
     style="display:inline"
     inkscape:label="vector"
     id="layer3"
     inkscape:groupmode="layer">
    <path
       id="path961"
       style="fill:#4a4b53;fill-opacity:1;stroke:none;stroke-width:0.999999px;stroke-linecap:butt;stroke-linejoin:miter;stroke-opacity:1"
       d="M 8.5 4 L 4 8.5 L 4 23.5 L 8.5 28 L 23.5 28 L 28 23.5 L 28 8.5 L 23.5 4 L 8.5 4 z M 9.5 8 L 10.5 8 L 12 9.5 L 12 10.5 L 10.5 12 L 9.5 12 L 8 10.5 L 8 9.5 L 9.5 8 z M 21.5 8 L 22.5 8 L 24 9.5 L 24 10.5 L 22.5 12 L 21.5 12 L 20 10.5 L 20 9.5 L 21.5 8 z M 9.5 20 L 10.5 20 L 12 21.5 L 12 22.5 L 10.5 24 L 9.5 24 L 8 22.5 L 8 21.5 L 9.5 20 z M 21.5 20 L 22.5 20 L 24 21.5 L 24 22.5 L 22.5 24 L 21.5 24 L 20 22.5 L 20 21.5 L 21.5 20 z "
       transform="scale(0.26458333)" />
    <path
       style="fill:#6e7080;stroke:none;stroke-width:0.264583px;stroke-linecap:butt;stroke-linejoin:miter;stroke-opacity:1;fill-opacity:1"
       d="m 3.175,1.0583333 v 0.396875 l 0.6614583,0.6614584 h 0.79375 L 5.2916666,1.4552083 v -0.396875"
       id="path9598" />
    <path
       style="display:inline;fill:#6e7080;fill-opacity:1;stroke:none;stroke-width:0.264583px;stroke-linecap:butt;stroke-linejoin:miter;stroke-opacity:1"
       d="M 3.175,7.4083335 V 7.0114585 L 3.8364583,6.3500001 h 0.79375 l 0.6614583,0.6614584 v 0.396875"
       id="path9598-56" />
    <path
       style="display:inline;fill:#6e7080;fill-opacity:1;stroke:none;stroke-width:0.264583px;stroke-linecap:butt;stroke-linejoin:miter;stroke-opacity:1"
       d="M 7.4083334,3.1750001 H 7.0114584 L 6.35,3.8364584 v 0.79375 l 0.6614584,0.6614583 h 0.396875"
       id="path9598-5" />
    <path
       style="display:inline;fill:#6e7080;fill-opacity:1;stroke:none;stroke-width:0.264583px;stroke-linecap:butt;stroke-linejoin:miter;stroke-opacity:1"
       d="m 1.0583334,3.1750002 h 0.3968749 l 0.6614584,0.6614583 v 0.79375 L 1.4552083,5.2916668 H 1.0583334"
       id="path9598-5-3" />
  </g>
  <g
     style="display:none"
     inkscape:label="image"
     id="layer1"
     inkscape:groupmode="layer"
     sodipodi:insensitive="true">
    <image
       width="8.4666672"
       height="8.4666672"
       preserveAspectRatio="none"
       style="image-rendering:optimizeSpeed"
       xlink:href="data:image/png;base64,iVBORw0KGgoAAAANSUhEUgAAACAAAAAgCAYAAABzenr0AAAArElEQVR42u2XsQ2AMAwEMx+U7IEY gTEQNXsCKZBC5DhviBxQXHwD9vsQRnncOM2OU9cPr5TzdwbwaYBl3bzJHuq8ziqu9x5iAN9EDX8C cEGkQOAnRyC4HhggNzwFgfRQENTiUM3cPWn9bR4CgABK6v8HoPsKJEslUeCLAZSEiDxxgBIQhJ8B /Aig6hJW+wztLGjvLEgEUb1AwqThOpEsB6ESSjkIlVhuf0ZNARwgxihbJHcGjAAAAABJRU5ErkJg gg== "
       id="image924"
       x="-2.3764649e-07"
       y="-2.3764649e-07" />
  </g>
</svg>
